X: 1
T: Fork In The Road, The
M: 4/4
L: 1/8
R: reel
K: Gmaj
d2Bd cdBd|~c3B AD (3FED|EB,EF ~G3B|dBAc Bdef|
gbfg edBA|GE~E2 cEGE|DB,DE GBdB|1 ecAF ~G3^c:|2 ecAF G2FG||
|:EB,EF ~G3B|AD (3FED A,DFA|G2BG dGBd|efed Bdef|
g2fa gdBG|~c3d eA (3cBA|dg~g2 egfg|1 ecAF G2FG:|2 ecAF ~G3^c||
